svg/arrow/arrow_right_down_circle_fill.svg

<?xml version="1.0" encoding="UTF-8"?>
<svg width="24px" height="24px" viewBox="0 0 24 24" version="1.1" xmlns="http://www.w3.org/2000/svg" xmlns:xlink="http://www.w3.org/1999/xlink">
    <title>arrow_right_down_circle_fill</title>
    <g id="Icon" stroke="none" stroke-width="1" fill="none" fill-rule="evenodd">
        <g id="Arrow" transform="translate(-672.000000, -146.000000)">
            <g id="arrow_right_down_circle_fill" transform="translate(672.000001, 146.000001)">
                <path d="M24,0 L24,24 L0,24 L0,0 L24,0 Z M12.5935,23.2578 L12.5819,23.2595 L12.5109,23.295 L12.4919,23.2987 L12.4767,23.295 L12.4057,23.2595 C12.3958,23.2564 12.387,23.259 12.3821,23.2649 L12.378,23.2758 L12.3609,23.7031 L12.3659,23.7235 L12.3769,23.7357 L12.4805,23.8097 L12.4953,23.8136 L12.5071,23.8097 L12.6107,23.7357 L12.6233,23.7197 L12.6267,23.7031 L12.6096,23.2758 C12.6076,23.2657 12.601,23.2593 12.5935,23.2578 Z M12.8584,23.1453 L12.8445,23.1473 L12.6598,23.2397 L12.6499,23.2499 L12.6472,23.2611 L12.6651,23.6906 L12.6699,23.7034 L12.6784,23.7105 L12.8793,23.8032 C12.8914,23.8069 12.9022,23.803 12.9078,23.7952 L12.9118,23.7812 L12.8777,23.1665 C12.8753,23.1546 12.8674,23.147 12.8584,23.1453 Z M12.143,23.1473 C12.1332,23.1424 12.1222,23.1453 12.1156,23.1526 L12.1099,23.1665 L12.0758,23.7812 C12.0751,23.7927 12.0828,23.8019 12.0926,23.8046 L12.1083,23.8032 L12.3092,23.7105 L12.3186,23.7024 L12.3225,23.6906 L12.3404,23.2611 L12.3372,23.2485 L12.3278,23.2397 L12.143,23.1473 Z" id="MingCute" fill-rule="nonzero"></path>
                <path d="M12,22 C17.5228,22 22,17.5228 22,12 C22,6.47715 17.5228,2 12,2 C6.47715,2 2,6.47715 2,12 C2,17.5228 6.47715,22 12,22 Z M15.003,9.0034 C14.4507,9.0034 14.003,9.45112 14.003,10.0034 L14.003,12.5888 L9.70711,8.29287 C9.31659,7.90235 8.68342,7.90235 8.2929,8.29287 C7.90237,8.6834 7.90237,9.31656 8.2929,9.70709 L12.5892,14.0034 L10.003,14.0034 C9.45074,14.0034 9.00302,14.4511 9.00302,15.0034 C9.00302,15.5557 9.45074,16.0034 10.003,16.0034 L15.003,16.0034 C15.5553,16.0034 16.003,15.5557 16.003,15.0034 L16.003,10.0034 C16.003,9.45112 15.5553,9.0034 15.003,9.0034 Z" id="形状" fill="#09244B"></path>
            </g>
        </g>
    </g>
</svg>

<svg xmlns="http://www.w3.org/2000/svg" width="24" height="24"><g fill="none" fill-rule="evenodd"><path d="M24 0v24H0V0h24ZM12.594 23.258l-.012.002-.071.035-.02.004-.014-.004-.071-.035c-.01-.004-.019-.001-.024.005l-.004.01-.017.428.005.02.01.013.105.074.014.004.012-.004.104-.074.012-.016.004-.017-.017-.427c-.002-.01-.009-.017-.016-.018Zm.264-.113-.013.002-.185.093-.01.01-.003.011.018.43.005.012.008.008.201.092c.012.004.023 0 .029-.008l.004-.014-.034-.614c-.003-.012-.01-.02-.02-.022Zm-.715.002a.023.023 0 0 0-.027.006l-.006.014-.034.614c0 .012.007.02.017.024l.015-.002.201-.092.01-.009.004-.011.017-.43-.003-.012-.01-.01-.184-.092Z"/><path fill="#09244B" d="M12 22c5.523 0 10-4.477 10-10S17.523 2 12 2 2 6.477 2 12s4.477 10 10 10Zm3.003-12.997a1 1 0 0 0-1 1v2.586L9.707 8.293a1 1 0 0 0-1.414 1.414l4.296 4.296h-2.586a1 1 0 0 0 0 2h5a1 1 0 0 0 1-1v-5a1 1 0 0 0-1-1Z"/></g></svg>
